static/fa/svgs/solid/pallet.svg

<svg xmlns="http://www.w3.org/2000/svg" viewBox="0 0 640 512"><!--! Font Awesome Free 6.1.1 by @fontawesome - https://fontawesome.com License - https://fontawesome.com/license/free (Icons: CC BY 4.0, Fonts: SIL OFL 1.1, Code: MIT License) Copyright 2022 Fonticons, Inc.--><path d="M624 384c8.75 0 16-7.25 16-16v-32c0-8.75-7.25-16-16-16H16c-8.75 0-16 7.3-16 16v32c0 8.8 7.25 16 16 16h48v64H16c-8.75 0-16 7.3-16 16v32c0 8.8 7.25 16 16 16h608c8.75 0 16-7.25 16-16v-32c0-8.75-7.25-16-16-16h-48v-64h48zm-336 64H128v-64h160v64zm224 0H352v-64h160v64z"/></svg>

<svg xmlns="http://www.w3.org/2000/svg" viewBox="0 0 640 512"><!--! Font Awesome Free 6.1.1 by @fontawesome - https://fontawesome.com License - https://fontawesome.com/license/free (Icons: CC BY 4.0, Fonts: SIL OFL 1.1, Code: MIT License) Copyright 2022 Fonticons, Inc. --><path d="M624 384c8.75 0 16-7.25 16-16v-32c0-8.75-7.25-16-16-16h-608C7.25 320 0 327.3 0 336v32C0 376.8 7.25 384 16 384H64v64H16C7.25 448 0 455.3 0 464v32C0 504.8 7.25 512 16 512h608c8.75 0 16-7.25 16-16v-32c0-8.75-7.25-16-16-16H576v-64H624zM288 448H128v-64h160V448zM512 448h-160v-64h160V448z"/></svg>
